src/pos-icons/hockey-puck.svg

<svg height="24" viewBox="0 0 24 24" width="24" xmlns="http://www.w3.org/2000/svg"><path d="m12 5c-5.5 0-10 1.57-10 3.5s4.5 3.5 10 3.5 10-1.57 10-3.5-4.5-3.5-10-3.5m-10 6.76v4.74c0 1.93 4.5 3.5 10 3.5s10-1.57 10-3.5v-4.74c-.67.46-1.42.81-2.27 1.1-2.11.74-4.78 1.14-7.73 1.14s-5.62-.4-7.73-1.14c-.85-.29-1.6-.64-2.27-1.1z"/></svg>

<?xml version="1.0" encoding="UTF-8"?><!DOCTYPE svg PUBLIC "-//W3C//DTD SVG 1.1//EN" "http://www.w3.org/Graphics/SVG/1.1/DTD/svg11.dtd"><svg xmlns="http://www.w3.org/2000/svg" xmlns:xlink="http://www.w3.org/1999/xlink" version="1.1" id="mdi-hockey-puck" width="24" height="24" viewBox="0 0 24 24"><path d="M12,5C6.5,5 2,6.57 2,8.5C2,10.43 6.5,12 12,12C17.5,12 22,10.43 22,8.5C22,6.57 17.5,5 12,5M2,11.76V16.5C2,18.43 6.5,20 12,20C17.5,20 22,18.43 22,16.5V11.76C21.33,12.22 20.58,12.57 19.73,12.86C17.62,13.6 14.95,14 12,14C9.05,14 6.38,13.6 4.27,12.86C3.42,12.57 2.67,12.22 2,11.76Z" /></svg>
